assets/svgs/misc-grey/MiscGrey51.svg

<svg xmlns="http://www.w3.org/2000/svg" viewBox="0 0 31 45"><path fill-rule="evenodd" d="M9.92 36.36H21.2c.83 0 1.5.67 1.5 1.5s-.67 1.5-1.5 1.5H9.92c-.83 0-1.5-.67-1.5-1.5s.67-1.5 1.5-1.5zm2.16 4.7h6.45c.83 0 1.5.67 1.5 1.5 0 .82-.67 1.5-1.5 1.5h-6.45c-.83 0-1.5-.68-1.5-1.5 0-.83.67-1.5 1.5-1.5zm8.83-15.34c-.62.27-.95.92-.87 1.56-.01.06-.02.12-.02.18v4.02h-8.6v-4.02c0-.64-.41-1.19-.98-1.4-.08-.06-.18-.12-.28-.17-3.82-1.7-6.29-5.89-6.29-10.67 0-6.49 5.28-11.76 11.76-11.76 6.48 0 11.75 5.27 11.75 11.76 0 5.07-2.17 8.6-6.47 10.5zm9.47-10.5C30.38 7.08 23.76.46 15.63.46 7.49.46.87 7.08.87 15.22c0 5.74 2.95 10.84 7.55 13.16v4.6c0 .83.67 1.5 1.5 1.5h11.6c.83 0 1.5-.67 1.5-1.5v-4.95c3.55-1.83 7.36-5.5 7.36-12.81z" clip-rule="evenodd"/></svg>

<svg width="31" height="45" viewBox="0 0 31 45" fill="none" xmlns="http://www.w3.org/2000/svg">
<path fill-rule="evenodd" clip-rule="evenodd" d="M9.92 36.36H21.2C22.03 36.36 22.7 37.03 22.7 37.86C22.7 38.69 22.03 39.36 21.2 39.36H9.92C9.09 39.36 8.42 38.69 8.42 37.86C8.42 37.03 9.09 36.36 9.92 36.36ZM12.08 41.06H18.53C19.36 41.06 20.03 41.73 20.03 42.56C20.03 43.38 19.36 44.06 18.53 44.06H12.08C11.25 44.06 10.58 43.38 10.58 42.56C10.58 41.73 11.25 41.06 12.08 41.06ZM20.91 25.72C20.29 25.99 19.96 26.64 20.04 27.28C20.03 27.34 20.02 27.4 20.02 27.46V31.48H11.42V27.46C11.42 26.82 11.01 26.27 10.44 26.06C10.36 26 10.26 25.94 10.16 25.89C6.34 24.19 3.87 20 3.87 15.22C3.87 8.73002 9.15 3.46002 15.63 3.46002C22.11 3.46002 27.38 8.73002 27.38 15.22C27.38 20.29 25.21 23.82 20.91 25.72ZM30.38 15.22C30.38 7.08002 23.76 0.460022 15.63 0.460022C7.49 0.460022 0.869995 7.08002 0.869995 15.22C0.869995 20.96 3.82 26.06 8.42 28.38V32.98C8.42 33.81 9.09 34.48 9.92 34.48H21.52C22.35 34.48 23.02 33.81 23.02 32.98V28.03C26.57 26.2 30.38 22.53 30.38 15.22Z" fill="#1A1919"/>
</svg>
